packages/kaspersky-hexa-ui-icons/src/iconsSVGs/16/IdentityCard.svg

<svg width="16" height="16" viewBox="0 0 16 16" fill="none" xmlns="http://www.w3.org/2000/svg">
<path fill-rule="evenodd" clip-rule="evenodd" d="M6.64551 8.0166C7.75247 8.01679 8.6502 8.91452 8.65039 10.0215C8.65026 10.7367 8.06971 11.3174 7.35449 11.3174H4.64551C3.93029 11.3174 3.34974 10.7367 3.34961 10.0215C3.3498 8.91452 4.24753 8.01679 5.35449 8.0166H6.64551ZM5.35449 9.31738C4.96713 9.31757 4.6532 9.62985 4.65039 10.0166H7.34961C7.3468 9.62985 7.03288 9.31757 6.64551 9.31738H5.35449Z" fill="black"/>
<path d="M11.333 6.68262C11.6919 6.68262 11.9833 6.97413 11.9834 7.33301C11.9834 7.64716 11.7601 7.90916 11.4639 7.96973L11.333 7.9834H9.33301C8.97413 7.98327 8.68262 7.69191 8.68262 7.33301C8.68275 6.97422 8.97422 6.68275 9.33301 6.68262H11.333Z" fill="black"/>
<path d="M6 4.66699C6.73635 4.66699 7.33296 5.26366 7.33301 6C7.33301 6.73638 6.73638 7.33301 6 7.33301C5.26366 7.33296 4.66699 6.73635 4.66699 6C4.66704 5.26368 5.26368 4.66704 6 4.66699Z" fill="black"/>
<path d="M11.4639 4.69629C11.76 4.75684 11.9833 5.01896 11.9834 5.33301C11.9834 5.64716 11.7601 5.90916 11.4639 5.96973L11.333 5.9834H9.33301C8.97413 5.98327 8.68262 5.69191 8.68262 5.33301C8.68275 4.97422 8.97422 4.68275 9.33301 4.68262H11.333L11.4639 4.69629Z" fill="black"/>
<path fill-rule="evenodd" clip-rule="evenodd" d="M12 2.0166C13.4636 2.0166 14.6504 3.20344 14.6504 4.66699V11.334C14.6501 12.7973 13.4634 13.9834 12 13.9834H4C2.53664 13.9834 1.34992 12.7973 1.34961 11.334V4.66699C1.34961 3.20344 2.53645 2.0166 4 2.0166H12ZM4 3.31738C3.25442 3.31738 2.65039 3.92141 2.65039 4.66699V11.334C2.6507 12.0793 3.25461 12.6836 4 12.6836H12C12.7454 12.6836 13.3493 12.0793 13.3496 11.334V4.66699C13.3496 3.92141 12.7456 3.31738 12 3.31738H4Z" fill="black"/>
</svg>

<svg xmlns="http://www.w3.org/2000/svg" width="16" height="16" fill="none" viewBox="0 0 16 16"><path fill="#000" fill-rule="evenodd" d="M12 2.0166c1.4635 0 2.6504 1.1868 2.6504 2.6504v6.667c-.0003 1.4633-1.187 2.6494-2.6504 2.6494H4c-1.4634 0-2.65-1.1861-2.6504-2.6494V4.667c0-1.4636 1.1869-2.6504 2.6504-2.6504zM4 3.3174c-.7456 0-1.3496.604-1.3496 1.3496v6.667c.0003.7453.6042 1.3496 1.3496 1.3496h8c.7454 0 1.3493-.6043 1.3496-1.3496V4.667c0-.7456-.604-1.3496-1.3496-1.3496zM7.333 6c0-.7363-.5967-1.333-1.333-1.333S4.667 5.2637 4.667 6c0 .7364.5967 1.333 1.333 1.333.7364 0 1.333-.5966 1.333-1.333m4.1309-1.3037a.651.651 0 0 1 .5195.6367.6505.6505 0 0 1-.5195.6367l-.1309.0137h-2a.651.651 0 0 1-.6504-.6504.651.651 0 0 1 .6504-.6504h2zm.5195 2.6367a.651.651 0 0 0-.6504-.6504h-2a.651.651 0 0 0-.6504.6504c0 .359.2915.6503.6504.6504h2l.1309-.0137a.6505.6505 0 0 0 .5195-.6367m-5.3379.6836c1.107.0002 2.0047.898 2.0049 2.0049-.0001.7152-.5807 1.2959-1.296 1.2959H4.6456c-.7152 0-1.2958-.5807-1.2959-1.2959.0002-1.107.898-2.0047 2.0049-2.0049zm-1.291 1.3008a.704.704 0 0 0-.7041.6992h2.6992a.704.704 0 0 0-.704-.6992z"/></svg>
